;FLAVOR:UltiGCode
;TIME:3103
;MATERIAL:8059
;MATERIAL2:0
;NOZZLE_DIAMETER:0.6
;Generated with Cura_SteamEngine 2.7.0

;LAYER_COUNT:279
;LAYER:0
M107
G0 F3240 X113.076 Y102.537 Z0.4
;TYPE:WALL-INNER
G1 F1620 X117.98 Y102.537 E1.03965
G1 X118.245 Y102.537 E1.09583
G1 X118.245 Y102.802 E1.13219
G1 X118.244 Y119.863 E4.74912
G1 X113.076 Y119.863 E5.84473
G1 X113.076 Y102.537 E9.51785
G0 F3240 X112.546 Y102.007
G1 F1620 X118.51 Y102.007 E10.78221
G1 X118.775 Y102.007 E10.83839
G1 X118.775 Y102.272 E10.87475
G1 X118.774 Y120.393 E14.7164
G1 X112.546 Y120.393 E16.03674
G1 X112.546 Y102.007 E19.93457
G0 F3240 X112.05 Y101.511
;TYPE:WALL-OUTER
G1 F1620 X119.006 Y101.511 E21.40924
G1 X119.271 Y101.511 E21.46542
G1 X119.271 Y101.776 E21.50178
G1 X119.27 Y120.889 E25.55374
G1 X112.05 Y120.889 E27.08438
G1 X112.05 Y101.511 E31.19251
G0 F3240 X112.35 Y101.511
G0 X112.616 Y102.077
G0 X118.005 Y103.014
G0 X117.885 Y102.894
G1 F1620 X117.51 Y103.269 E31.37664
;TYPE:SKIN
G1 X118.098 Y103.857
G0 F3240 X118.005 Y104.513
G1 F1620 X116.267 Y102.775 E31.89772
G1 X116.174 Y102.682
G0 F3240 X115.517 Y102.775
G1 F1620 X118.005 Y105.263 E32.64366
G1 X118.098 Y105.356
G0 F3240 X118.005 Y106.012
G1 F1620 X114.768 Y102.775 E33.61415
G1 X114.675 Y102.682
G0 F3240 X114.018 Y102.775
G1 F1620 X118.005 Y106.762 E34.80951
G1 X118.098 Y106.855
G0 F3240 X118.005 Y107.512
G1 F1620 X113.314 Y102.821 E36.21593
G1 X113.221 Y102.728
G0 F3240 X113.314 Y103.57
G1 F1620 X118.005 Y108.261 E37.62235
G1 X118.098 Y108.354
G0 F3240 X118.005 Y109.011
G1 F1620 X113.314 Y104.32 E39.02878
G1 X113.221 Y104.227
G0 F3240 X113.314 Y105.069
G1 F1620 X118.005 Y109.76 E40.4352
G1 X118.098 Y109.853
G0 F3240 X118.005 Y110.51
G1 F1620 X113.314 Y105.819 E41.84163
G1 X113.221 Y105.726
G0 F3240 X113.314 Y106.568
G1 F1620 X118.005 Y111.259 E43.24805
G1 X118.098 Y111.352
G0 F3240 X118.005 Y112.009
G1 F1620 X113.314 Y107.318 E44.65448
G1 X113.221 Y107.225
G0 F3240 X113.314 Y108.067
G1 F1620 X118.005 Y112.758 E46.0609
G1 X118.098 Y112.851
G0 F3240 X118.005 Y113.508
G1 F1620 X113.314 Y108.817 E47.46732
G1 X113.221 Y108.724
G0 F3240 X113.314 Y109.566
G1 F1620 X118.005 Y114.257 E48.87375
G1 X118.098 Y114.35
G0 F3240 X118.005 Y115.007
G1 F1620 X113.314 Y110.316 E50.28017
G1 X113.221 Y110.223
G0 F3240 X113.314 Y111.065
G1 F1620 X118.005 Y115.756 E51.6866
G1 X118.098 Y115.849
G0 F3240 X118.005 Y116.506
G1 F1620 X113.314 Y111.815 E53.09302
G1 X113.221 Y111.722
G0 F3240 X113.314 Y112.565
G1 F1620 X118.005 Y117.255 E54.49929
G1 X118.098 Y117.348
G0 F3240 X118.005 Y118.005
G1 F1620 X113.314 Y113.314 E55.90572
G1 X113.221 Y113.221
G0 F3240 X113.314 Y114.064
G1 F1620 X118.005 Y118.755 E57.31214
G1 X118.098 Y118.848
G0 F3240 X118.005 Y119.504
G1 F1620 X113.314 Y114.813 E58.71857
G1 X113.221 Y114.72
G0 F3240 X113.314 Y115.563
G1 F1620 X117.374 Y119.623 E59.93581
G1 X117.467 Y119.716
G0 F3240 X116.625 Y119.623
G1 F1620 X113.314 Y116.312 E60.92849
G1 X113.221 Y116.219
G0 F3240 X113.314 Y117.062
G1 F1620 X115.875 Y119.623 E61.69631
G1 X115.968 Y119.716
G0 F3240 X115.126 Y119.623
G1 F1620 X113.314 Y117.811 E62.23957
G1 X113.221 Y117.718
G0 F3240 X113.314 Y118.561
G1 F1620 X114.376 Y119.623 E62.55797
G1 X114.469 Y119.716
G0 F3240 X113.627 Y119.623
G1 F1620 X113.314 Y119.31 E62.65182
G0 F3240 X112.995 Y102.537
;TIME_ELAPSED:15.177152
;LAYER:1
M106 S255
G0 F4620 X112.995 Y102.537 Z0.55
;TYPE:WALL-INNER
G1 F2310 X118.072 Y102.537 E63.05544
G1 X118.337 Y102.537 E63.07651
G1 X118.337 Y102.802 E63.09014
G1 X118.336 Y119.863 E64.44649
G1 X112.995 Y119.863 E64.8711
G1 X112.995 Y102.537 E66.24852
G0 F4620 X112.465 Y102.007
G1 F2310 X118.602 Y102.007 E66.73641
G1 X118.867 Y102.007 E66.75747
G1 X118.867 Y102.272 E66.77111
G1 X118.866 Y120.393 E68.21173
G1 X112.465 Y120.393 E68.72061
G1 X112.465 Y102.007 E70.18229
G0 F4620 X111.969 Y101.511
;TYPE:WALL-OUTER
G1 F1560 X119.098 Y101.511 E70.74905
G1 X119.363 Y101.511 E70.77012
G1 X119.363 Y101.776 E70.78375
G1 X119.362 Y120.889 E72.30324
G1 X111.969 Y120.889 E72.89098
G1 X111.969 Y101.511 E74.43153
G0 F4620 X112.269 Y101.511
G0 X112.535 Y102.077
G0 X113.233 Y103.381
;TYPE:SKIN
G1 F2310 X113.839 Y102.775 E74.49966
G0 F4620 X114.588 Y102.775
G1 F2310 X113.233 Y104.13 E74.65201
G1 X113.14 Y104.223
G0 F4620 X113.233 Y104.88
G1 F2310 X115.338 Y102.775 E74.88867
G1 X115.431 Y102.682
G0 F4620 X116.087 Y102.775
G1 F2310 X113.233 Y105.629 E75.20955
G1 X113.14 Y105.722
G0 F4620 X113.233 Y106.379
G1 F2310 X116.837 Y102.775 E75.61474
G1 X116.93 Y102.682
G0 F4620 X117.586 Y102.775
G1 F2310 X113.233 Y107.128 E76.10415
G1 X113.14 Y107.221
G0 F4620 X113.233 Y107.878
G1 F2310 X118.097 Y103.014 E76.65101
G1 X118.19 Y102.921
G0 F4620 X118.097 Y103.764
G1 F2310 X113.233 Y108.627 E77.19781
G1 X113.14 Y108.72
G0 F4620 X113.233 Y109.377
G1 F2310 X118.097 Y104.513 E77.74467
G1 X118.19 Y104.42
G0 F4620 X118.097 Y105.263
G1 F2310 X113.233 Y110.126 E78.29148
G1 X113.14 Y110.219
G0 F4620 X113.233 Y110.876
G1 F2310 X118.097 Y106.012 E78.83834
G1 X118.19 Y105.919
G0 F4620 X118.097 Y106.762
G1 F2310 X113.233 Y111.625 E79.38514
G1 X113.14 Y111.718
G0 F4620 X113.233 Y112.375
G1 F2310 X118.097 Y107.512 E79.93194
G1 X118.19 Y107.419
G0 F4620 X118.097 Y108.261
G1 F2310 X113.233 Y113.125 E80.4788
G1 X113.14 Y113.218
G0 F4620 X113.233 Y113.874
G1 F2310 X118.097 Y109.011 E81.0256
G1 X118.19 Y108.918
G0 F4620 X118.097 Y109.76
G1 F2310 X113.233 Y114.624 E81.57246
G1 X113.14 Y114.717
G0 F4620 X113.233 Y115.373
G1 F2310 X118.097 Y110.51 E82.11927
G1 X118.19 Y110.417
G0 F4620 X118.097 Y111.259
G1 F2310 X113.233 Y116.123 E82.66613
G1 X113.14 Y116.216
G0 F4620 X113.233 Y116.872
G1 F2310 X118.097 Y112.009 E83.21293
G1 X118.19 Y111.916
G0 F4620 X118.097 Y112.758
G1 F2310 X113.233 Y117.622 E83.75979
G1 X113.14 Y117.715
G0 F4620 X113.233 Y118.371
G1 F2310 X118.097 Y113.508 E84.30659
G1 X118.19 Y113.415
G0 F4620 X118.097 Y114.257
G1 F2310 X113.233 Y119.121 E84.85345
G1 X113.14 Y119.214
G0 F4620 X113.481 Y119.623
G1 F2310 X118.097 Y115.007 E85.37243
G1 X118.19 Y114.914
G0 F4620 X118.097 Y115.756
G1 F2310 X114.23 Y119.623 E85.8072
G1 X114.137 Y119.716
G0 F4620 X114.98 Y119.623
G1 F2310 X118.097 Y116.506 E86.15764
G1 X118.19 Y116.413
G0 F4620 X118.097 Y117.255
G1 F2310 X115.73 Y119.623 E86.42382
G1 X115.637 Y119.716
G0 F4620 X116.479 Y119.623
G1 F2310 X118.097 Y118.005 E86.60573
G1 X118.19 Y117.912
G0 F4620 X118.097 Y118.755
G1 F2310 X117.229 Y119.623 E86.70332
G1 X117.136 Y119.716
G0 F4620 X117.978 Y119.623
G1 F2310 X118.097 Y119.504 E86.7167
G0 F4620 X112.915 Y102.537
;TIME_ELAPSED:25.081937
;LAYER:2
G0 F6000 X112.915 Y102.537 Z0.7
;TYPE:WALL-INNER
G1 F3000 X118.164 Y102.537 E87.13399
G1 X118.429 Y102.537 E87.15506
G1 X118.429 Y102.802 E87.16869
G1 X118.428 Y119.863 E88.52504
G1 X112.915 Y119.863 E88.96333
G1 X112.915 Y102.537 E90.34074
G0 F6000 X112.385 Y102.007
G1 F3000 X118.694 Y102.007 E90.84231
G1 X118.959 Y102.007 E90.86338
G1 X118.959 Y102.272 E90.87701
G1 X118.958 Y120.393 E92.31763
G1 X112.385 Y120.393 E92.84019
G1 X112.385 Y102.007 E94.30187
G0 F6000 X111.889 Y101.511
;TYPE:WALL-OUTER
G1 F1500 X119.19 Y101.511 E94.8823
G1 X119.455 Y101.511 E94.90337
G1 X119.455 Y101.776 E94.917
G1 X119.454 Y120.889 E96.43649
G1 X111.889 Y120.889 E97.0379
G1 X111.889 Y101.511 E98.57846
G0 F6000 X112.189 Y101.511
G0 X112.455 Y102.077
G0 X112.485 Y105.732
G0 X111.321 Y105.732
G1 F1500 X111.346 Y105.752 E98.581
G1 X111.323 Y105.77
G1 X111.228 Y105.848 E98.58634
G1 X111.228 Y105.752
G1 X111.228 Y105.656
G1 X111.321 Y105.732
G0 F6000 X111.346 Y105.752
G0 X111.323 Y105.77
G0 X111.228 Y105.848
G0 X111.228 Y105.752
G0 X111.228 Y105.731
G0 X112.485 Y105.731
G0 X118.189 Y103.198
;TYPE:SKIN
G1 F3000 X117.766 Y102.775 E98.63389
G0 F6000 X117.016 Y102.775
G1 F3000 X118.189 Y103.948 E98.76577
G1 X118.282 Y104.041
G0 F6000 X118.189 Y104.697
G1 F3000 X116.267 Y102.775 E98.98186
G1 X116.174 Y102.682
G0 F6000 X115.517 Y102.775
G1 F3000 X118.189 Y105.447 E99.28228
G1 X118.282 Y105.54
G0 F6000 X118.189 Y106.196
G1 F3000 X114.768 Y102.775 E99.6669
G1 X114.675 Y102.682
G0 F6000 X114.018 Y102.775
G1 F3000 X118.189 Y106.946 E100.13585
G1 X118.282 Y107.039
G0 F6000 X118.189 Y107.695
G1 F3000 X113.269 Y102.775 E100.689
G1 X113.176 Y102.682
G0 F6000 X113.153 Y103.409
G1 F3000 X118.189 Y108.445 E101.2552
G1 X118.282 Y108.538
G0 F6000 X118.189 Y109.194
G1 F3000 X113.153 Y104.158 E101.8214
G1 X113.06 Y104.065
G0 F6000 X113.153 Y104.908
G1 F3000 X118.189 Y109.944 E102.38759
G1 X118.282 Y110.037
G0 F6000 X118.189 Y110.694
G1 F3000 X113.153 Y105.658 E102.95379
G1 X113.06 Y105.565
G0 F6000 X113.153 Y106.407
G1 F3000 X118.189 Y111.443 E103.51999
G1 X118.282 Y111.536
G0 F6000 X118.189 Y112.193
G1 F3000 X113.153 Y107.157 E104.08619
G1 X113.06 Y107.064
G0 F6000 X113.153 Y107.906
G1 F3000 X118.189 Y112.942 E104.65238
G1 X118.282 Y113.035
G0 F6000 X118.189 Y113.692
G1 F3000 X113.153 Y108.656 E105.21858
G1 X113.06 Y108.563
G0 F6000 X113.153 Y109.405
G1 F3000 X118.189 Y114.441 E105.78478
G1 X118.282 Y114.534
G0 F6000 X118.189 Y115.191
G1 F3000 X113.153 Y110.155 E106.35097
G1 X113.06 Y110.062
G0 F6000 X113.153 Y110.904
G1 F3000 X118.189 Y115.94 E106.91717
G1 X118.282 Y116.033
G0 F6000 X118.189 Y116.69
G1 F3000 X113.153 Y111.654 E107.48337
G1 X113.06 Y111.561
G0 F6000 X113.153 Y112.403
G1 F3000 X118.189 Y117.439 E108.04957
G1 X118.282 Y117.532
G0 F6000 X118.189 Y118.189
G1 F3000 X113.153 Y113.153 E108.61576
G1 X113.06 Y113.06
G0 F6000 X113.153 Y113.902
G1 F3000 X118.189 Y118.938 E109.18196
G1 X118.282 Y119.031
G0 F6000 X118.123 Y119.622
G1 F3000 X113.153 Y114.652 E109.74074
G1 X113.06 Y114.559
G0 F6000 X113.153 Y115.401
G1 F3000 X117.374 Y119.622 E110.21531
G1 X117.467 Y119.715
G0 F6000 X116.624 Y119.622
G1 F3000 X113.153 Y116.151 E110.60555
G1 X113.06 Y116.058
G0 F6000 X113.153 Y116.901
G1 F3000 X115.875 Y119.622 E110.91153
G1 X115.968 Y119.715
G0 F6000 X115.125 Y119.622
G1 F3000 X113.153 Y117.65 E111.13324
G1 X113.06 Y117.557
G0 F6000 X113.153 Y118.4
G1 F3000 X114.375 Y119.622 E111.27063
G1 X114.468 Y119.715
G0 F6000 X113.626 Y119.622
G1 F3000 X113.153 Y119.149 E111.32381
G0 F6000 X112.835 Y102.537
;TIME_ELAPSED:33.971890
;LAYER:3
G0 X112.835 Y102.537 Z0.85
;TYPE:WALL-INNER
G1 F3000 X118.255 Y102.537 E111.7547
G1 X118.52 Y102.537 E111.77577
G1 X118.52 Y102.802 E111.7894
G1 X118.519 Y119.863 E113.14575
G1 X112.835 Y119.863 E113.59763
G1 X112.835 Y102.537 E114.97505
G0 F6000 X112.305 Y102.007
G1 F3000 X118.785 Y102.007 E115.49021
G1 X119.05 Y102.007 E115.51127
G1 X119.05 Y102.272 E115.52491
G1 X119.049 Y120.393 E116.96553
G1 X112.305 Y120.393 E117.50167
G1 X112.305 Y102.007 E118.96336
G0 F6000 X112.375 Y102.077
G0 X112.405 Y105.459
G0 X111.808 Y105.459
;TYPE:WALL-OUTER
G1 F1500 X111.808 Y105.3 E118.976
G1 X111.809 Y101.511 E119.27723
G1 X119.281 Y101.511 E119.87125
G1 X119.546 Y101.511 E119.89232
G1 X119.546 Y101.776 E119.90595
G1 X119.545 Y120.889 E121.42544
G1 X111.809 Y120.889 E122.04045
G1 X111.808 Y106.202 E123.20807
G1 X111.808 Y106.045 E123.22055
G1 X111.466 Y105.883 E123.25063
G1 X111.461 Y105.887 E123.25114
G1 X111.344 Y105.983 E123.26317
G1 X111.343 Y105.984 E123.26329
G1 X111.148 Y106.143 E123.28329
G1 X111.148 Y105.892 E123.29422
G1 X111.148 Y105.891 E123.2943
G1 X111.148 Y105.884 E123.29476
G1 X111.148 Y105.622 E123.31559
G1 X111.147 Y105.361 E123.33634
G1 X111.152 Y105.365 E123.33685
G1 X111.343 Y105.521 E123.35645
G1 X111.466 Y105.621 E123.36906
G1 X111.58 Y105.567 E123.37436
G1 X111.808 Y105.459 E123.39441
G0 F6000 X111.808 Y105.3
G0 X111.808 Y105.159
G0 X112.405 Y105.159
G0 X113.073 Y103.541
;TYPE:SKIN
G1 F3000 X113.839 Y102.775 E123.48054
G1 X113.932 Y102.682
G0 F6000 X114.588 Y102.775
G1 F3000 X113.073 Y104.291 E123.65092
G1 X112.98 Y104.384
G0 F6000 X113.073 Y105.04
G1 F3000 X115.338 Y102.775 E123.90558
G1 X115.431 Y102.682
G0 F6000 X116.087 Y102.775
G1 F3000 X113.073 Y105.79 E124.2445
G1 X112.98 Y105.883
G0 F6000 X113.073 Y106.539
G1 F3000 X116.837 Y102.775 E124.66768
G1 X116.93 Y102.682
G0 F6000 X117.586 Y102.775
G1 F3000 X113.073 Y107.289 E125.17514
G1 X112.98 Y107.382
G0 F6000 X113.073 Y108.038
G1 F3000 X118.279 Y102.832 E125.76045
G1 X118.372 Y102.739
G0 F6000 X118.279 Y103.581
G1 F3000 X113.073 Y108.788 E126.34581
G1 X112.98 Y108.881
G0 F6000 X113.073 Y109.537
G1 F3000 X118.279 Y104.331 E126.93112
G1 X118.372 Y104.238
G0 F6000 X118.279 Y105.081
G1 F3000 X113.073 Y110.287 E127.51643
G1 X112.98 Y110.38
G0 F6000 X113.073 Y111.036
G1 F3000 X118.279 Y105.83 E128.10174
G1 X118.372 Y105.737
G0 F6000 X118.279 Y106.58
G1 F3000 X113.074 Y111.785 E128.68694
G1 X112.981 Y111.878
G0 F6000 X113.074 Y112.535
G1 F3000 X118.279 Y107.329 E129.2722
G1 X118.372 Y107.236
G0 F6000 X118.279 Y108.079
G1 F3000 X113.074 Y113.284 E129.8574
G1 X112.981 Y113.377
G0 F6000 X113.074 Y114.034
G1 F3000 X118.279 Y108.828 E130.44265
G1 X118.372 Y108.735
G0 F6000 X118.279 Y109.578
G1 F3000 X113.074 Y114.783 E131.02785
G1 X112.981 Y114.876
G0 F6000 X113.074 Y115.533
G1 F3000 X118.279 Y110.327 E131.6131
G1 X118.372 Y110.234
G0 F6000 X118.279 Y111.077
G1 F3000 X113.074 Y116.283 E132.19836
G1 X112.981 Y116.376
G0 F6000 X113.074 Y117.032
G1 F3000 X118.279 Y111.826 E132.78361
G1 X118.372 Y111.733
G0 F6000 X118.279 Y112.576
G1 F3000 X113.074 Y117.782 E133.36886
G1 X112.981 Y117.875
G0 F6000 X113.074 Y118.531
G1 F3000 X118.279 Y113.325 E133.95412
G1 X118.372 Y113.232
G0 F6000 X118.279 Y114.075
G1 F3000 X113.074 Y119.281 E134.53937
G1 X112.981 Y119.374
G0 F6000 X113.481 Y119.623
G1 F3000 X118.279 Y114.824 E135.07887
G1 X118.372 Y114.731
G0 F6000 X118.279 Y115.574
G1 F3000 X114.23 Y119.623 E135.5341
G1 X114.137 Y119.716
G0 F6000 X114.98 Y119.623
G1 F3000 X118.279 Y116.324 E135.905
G1 X118.372 Y116.231
G0 F6000 X118.279 Y117.073
G1 F3000 X115.73 Y119.623 E136.19164
G1 X115.637 Y119.716
G0 F6000 X116.479 Y119.623
G1 F3000 X118.279 Y117.823 E136.39402
G1 X118.372 Y117.73
G0 F6000 X118.279 Y118.572
G1 F3000 X117.229 Y119.623 E136.51213
G1 X117.136 Y119.716
G0 F6000 X117.978 Y119.623
G1 F3000 X118.279 Y119.322 E136.54597
G0 F6000 X112.755 Y102.537
;TIME_ELAPSED:42.949625
;LAYER:4
G0 X112.755 Y102.537 Z1
;TYPE:WALL-INNER
G1 F3000 X118.347 Y102.537 E136.99053
G1 X118.612 Y102.537 E137.0116
G1 X118.612 Y102.802 E137.02523
G1 X118.611 Y119.863 E138.38158
G1 X112.755 Y119.863 E138.84713
G1 X112.755 Y102.537 E140.22455
G0 F6000 X112.308 Y105.532
G0 X112.224 Y105.479
G1 F3000 X112.225 Y102.007 E140.50058
G1 X118.877 Y102.007 E141.02941
G1 X119.142 Y102.007 E141.05048
G1 X119.142 Y102.272 E141.06411
G1 X119.141 Y120.393 E142.50473
G1 X112.225 Y120.393 E143.05455
G1 X112.224 Y106.025 E144.19681
G1 X112.013 Y105.925 E144.21537
G1 X111.648 Y105.752 E144.24748
G1 X112.012 Y105.58
G1 X112.224 Y105.479 E144.26254
G0 F6000 X111.728 Y105.165
;TYPE:WALL-OUTER
G1 F1500 X111.728 Y105.005 E144.27526
G1 X111.729 Y101.511 E144.55304
G1 X119.373 Y101.511 E145.16074
G1 X119.638 Y101.511 E145.1818
G1 X119.638 Y101.776 E145.19544
G1 X119.637 Y120.889 E146.71492
G1 X111.729 Y120.889 E147.34361
G1 X111.728 Y106.499 E148.48761
G1 X111.728 Y106.339 E148.50033
G1 X111.386 Y106.177 E148.53042
G1 X111.263 Y106.278 E148.54307
G1 X111.068 Y106.438 E148.56312
G1 X111.068 Y106.337 E148.56469
G1 X111.068 Y106.178 E148.57505
G1 X111.068 Y105.328 E148.64263
G1 X111.067 Y105.066 E148.66346
G1 X111.263 Y105.226 E148.68357
G1 X111.386 Y105.327 E148.69622
G1 X111.728 Y105.165 E148.72631
G0 F6000 X111.728 Y105.005
G0 X111.728 Y104.865
G0 X112.324 Y104.866
G0 X118.371 Y103.381
;TYPE:SKIN
G1 F3000 X117.766 Y102.775 E148.79439
G0 F6000 X117.016 Y102.775
G1 F3000 X118.371 Y104.13 E148.94673
G1 X118.464 Y104.223
G0 F6000 X118.371 Y104.88
G1 F3000 X116.267 Y102.775 E149.18334
G1 X116.174 Y102.682
G0 F6000 X115.517 Y102.775
G1 F3000 X118.371 Y105.629 E149.50421
G1 X118.464 Y105.722
G0 F6000 X118.371 Y106.379
G1 F3000 X114.768 Y102.775 E149.90935
G1 X114.675 Y102.682
G0 F6000 X114.018 Y102.775
G1 F3000 X118.371 Y107.128 E150.39876
G1 X118.464 Y107.221
G0 F6000 X118.371 Y107.878
G1 F3000 X113.269 Y102.775 E150.97243
G1 X113.176 Y102.682
G0 F6000 X112.993 Y103.249
G1 F3000 X118.371 Y108.627 E151.57708
G1 X118.464 Y108.72
